app/style/icons/au-flag.svg

<svg height="640" viewBox="0 0 10080 5040" width="1280" xmlns="http://www.w3.org/2000/svg" xmlns:xlink="http://www.w3.org/1999/xlink"><defs><clipPath id="a"><path d="m0 0v1.5h7v1.5h-1zm6 0h-3v3.5h-3v-.5z"/></clipPath><path id="b" d="m0-360 69.421398 215.844981 212.037936-80.30131-125.470868 188.85298 194.985582 115.710885-225.881011 19.650832 31.105109 224.590424-156.198146-164.348792-156.198146 164.348792 31.105109-224.590424-225.881011-19.650832 194.985582-115.710885-125.470868-188.85298 212.037936 80.30131z"/><use id="c" transform="scale(2.1)" xlink:href="#b"/></defs><g transform="scale(840)"><path d="m0 0h12v6h-12z" fill="#002776"/><path d="m0 0 6 3m0-3-6 3" stroke="#fff" stroke-width=".6"/><path clip-path="url(#a)" d="m0 0 6 3m0-3-6 3" stroke="#e00034" stroke-width=".4"/><path d="m3 0v3.5m-3-2h7" stroke="#fff"/><path d="m3 0v3.5m-3-2h7" stroke="#e00034" stroke-width=".6"/><path d="m0 3h6v-3h2v4h-8z" fill="#002776"/></g><g fill="#fff"><use x="2520" xlink:href="#c" y="3780"/><use x="7560" xlink:href="#b" y="4200"/><use x="6300" xlink:href="#b" y="2205"/><use x="7560" xlink:href="#b" y="840"/><use x="8680" xlink:href="#b" y="1869"/><path d="m0-210 54.859957 134.491747 144.861911 10.614684-110.956593 93.735155 34.669628 141.051983-123.434903-76.560236-123.434903 76.560236 34.669628-141.051983-110.956593-93.735155 144.861911-10.614684z" transform="translate(8064 2730)"/></g></svg>

﻿<?xml version="1.0" encoding="UTF-8"?>
<svg xmlns="http://www.w3.org/2000/svg" xmlns:xlink="http://www.w3.org/1999/xlink" width="1280" height="640" viewBox="0 0 10080 5040">
<defs>
<clipPath id="c">
<path d="M0,0V1.5H7V3H6zM6,0H3V3.5H0V3z"/>
</clipPath>
<path id="Star7" d="M0,-360 69.421398,-144.155019 281.459334,-224.456329 155.988466,-35.603349 350.974048,80.107536 125.093037,99.758368 156.198146,324.348792 0,160 -156.198146,324.348792 -125.093037,99.758368 -350.974048,80.107536 -155.988466,-35.603349 -281.459334,-224.456329 -69.421398,-144.155019z"/>
<path id="Star5" d="M0,-210 54.859957,-75.508253 199.721868,-64.893569 88.765275,28.841586 123.434903,169.893569 0,93.333333 -123.434903,169.893569 -88.765275,28.841586 -199.721868,-64.893569 -54.859957,-75.508253z"/>
<use id="Cstar" xlink:href="#Star7" transform="scale(2.1)"/>
</defs>
<g transform="scale(840)">
<rect width="12" height="6" fill="#002776"/>
<path d="M0,0 6,3M6,0 0,3" stroke="#fff" stroke-width="0.6"/>
<path d="M0,0 6,3M6,0 0,3" stroke="#e00034" stroke-width="0.4" clip-path="url(#c)"/>
<path d="M3,0V3.5M0,1.5H7" stroke="#fff"/>
<path d="M3,0V3.5M0,1.5H7" stroke="#e00034" stroke-width="0.6"/>
<path d="M0,3H6V0H8V4H0z" fill="#002776"/>
</g>
<g fill="#fff">
<use id="Comwlth" xlink:href="#Cstar" x="2520" y="3780"/>
<use id="αCrucis" xlink:href="#Star7" x="7560" y="4200"/>
<use id="βCrucis" xlink:href="#Star7" x="6300" y="2205"/>
<use id="γCrucis" xlink:href="#Star7" x="7560" y="840"/>
<use id="δCrucis" xlink:href="#Star7" x="8680" y="1869"/>
<use id="εCrucis" xlink:href="#Star5" x="8064" y="2730"/>
</g>
</svg>
